packages/kaspersky-hexa-ui-icons/src/iconsSVGs/16/NewSolid.svg

<svg width="16" height="16" viewBox="0 0 16 16" fill="none" xmlns="http://www.w3.org/2000/svg">
<path d="M7.38819 1.93764C7.54631 1.29943 8.4535 1.29943 8.61162 1.93764C9.27733 4.62456 11.3753 6.72247 14.0622 7.38819C14.7004 7.54631 14.7004 8.4535 14.0622 8.61162C11.3752 9.27733 9.27733 11.3753 8.61162 14.0622C8.4535 14.7004 7.54631 14.7004 7.38819 14.0622C6.72247 11.3752 4.62455 9.27733 1.93764 8.61162C1.29943 8.4535 1.29943 7.54631 1.93764 7.38819C4.62456 6.72247 6.72247 4.62456 7.38819 1.93764Z" fill="black"/>
</svg>

<svg xmlns="http://www.w3.org/2000/svg" width="16" height="16" fill="none" viewBox="0 0 16 16"><path fill="#000" d="M7.3882 1.9378c.1581-.6382 1.0653-.6382 1.2234 0a7.465 7.465 0 0 0 5.4506 5.4505c.6382.1581.6382 1.0653 0 1.2234a7.465 7.465 0 0 0-5.4506 5.4506c-.1581.6382-1.0653.6382-1.2234 0a7.465 7.465 0 0 0-5.4506-5.4506c-.6382-.158-.6382-1.0653 0-1.2234a7.465 7.465 0 0 0 5.4506-5.4505"/></svg>
